src/assets/icons/how-to-keep-others-safe/get-tested.svg

<?xml version="1.0" encoding="UTF-8"?>
<svg width="48px" height="48px" viewBox="0 0 48 48" version="1.1" xmlns="http://www.w3.org/2000/svg" xmlns:xlink="http://www.w3.org/1999/xlink">
    <title>health-advice/get-tested copy</title>
    <g id="--Explorations" stroke="none" stroke-width="1" fill="none" fill-rule="evenodd">
        <g id="Explore-button-states" transform="translate(-132.000000, -811.000000)">
            <g id="health-advice/get-tested-copy" transform="translate(132.000000, 811.000000)">
                <path d="M42.8715,47.594 L5.1295,47.594 C2.4085,47.594 0.2035,45.389 0.2035,42.668 L0.2035,4.926 C0.2035,2.205 2.4085,0 5.1295,0 L42.8715,0 C45.5925,0 47.7975,2.205 47.7975,4.926 L47.7975,42.668 C47.7975,45.389 45.5925,47.594 42.8715,47.594" id="Fill-1" fill="#523178" fill-rule="nonzero"></path>
                <path d="M39.5508236,18.5919334 C39.0909593,18.5919334 38.6966145,18.8641588 38.5233976,19.2520199 C34.3089553,19.2520199 31.1481236,19.2520199 29.0409025,19.2520199 C26.9336813,19.2520199 26.3791538,19.2520199 27.3773201,19.2520199 C27.71065,18.7352733 27.6819852,18.0474824 27.2495572,17.5624553 L24.4911907,14.607725 C25.5132933,15.1385245 28.0435704,16.876672 29.7810628,18.1627165 C30.5423163,18.7296521 31.6291193,18.579888 32.204871,17.8322717 C32.7826701,17.0838525 32.629928,16.0206474 31.8682651,15.4545148 C30.7876045,14.6538989 27.009183,12.3062554 24.5067516,10.767258 L17.9691445,13.4606038 C17.8336012,13.5176186 17.6902775,13.5224367 17.5596482,13.484293 C17.3913453,13.434907 17.2467931,13.3148548 17.1730838,13.1430074 C17.0416355,12.8382594 17.1874162,12.4881405 17.4974048,12.3616641 L23.2475507,9.99153591 C22.6087366,9.6020688 22.1971929,9.35192652 22.1971929,9.35192652 C21.5485509,8.868907 20.6615821,8.9845426 20.3241572,9.10860995 L13.1514215,11.7654181 C12.5650229,11.9497123 12.1076156,12.3676868 11.9257993,12.9972584 L9.06710619,22.3802037 L4,26.6804024 L4,37.5714286 L29.5546114,23.7786717 C30.4374853,23.4197195 30.8559904,22.4271806 30.4915388,21.5599137 C30.1270872,20.6958588 29.1172695,20.283104 28.2319387,20.6404501 L27.8486502,20.7958354 C24.3949591,22.19872 22.8429684,23.4329694 21.1689479,22.6460049 C19.3016452,21.765488 18.6546411,20.5091555 19.0063984,18.5305019 C19.2488201,17.1802155 19.9818184,16.0431321 21.0743543,15.3284399 C21.1476541,15.2794554 21.2283249,15.2485389 21.3061291,15.2059786 L24.9166573,19.2520199 L20.5493801,19.2520199 C20.3012254,19.2520199 20.0997533,19.449564 20.0997533,19.6924791 C20.0997533,19.9357957 20.3012254,19.1329383 20.5493801,19.1329383 L38.5233976,19.1329383 C38.6966145,19.5207993 39.0909593,19.7934263 39.5508236,19.7934263 L39.5508236,18.5919334 Z" id="Path" fill="#FFFFFF" fill-rule="nonzero"></path>
                <rect id="Rectangle" fill="#FFFFFF" x="20" y="19" width="19" height="1"></rect>
                <rect id="Rectangle-Copy-2" fill="#FFFFFF" transform="translate(39.500000, 19.500000) scale(-1, 1) translate(-39.500000, -19.500000) " x="36" y="18.5" width="7" height="2" rx="1"></rect>
                <path d="M23.2475507,9.99153591 L24.6106912,10.8297063 C19.9658288,12.8302365 17.6433976,13.8305016 17.6433976,13.8305016 C17.6433976,13.8305016 17.1405431,13.6392747 16.1348341,13.2568208 L16.8822766,12.1280064 L23.2475507,9.99153591 Z" id="Path-2" fill="#FFFFFF"></path>
            </g>
        </g>
    </g>
</svg>

<svg width="48" height="48" xmlns="http://www.w3.org/2000/svg"><g fill="none" fill-rule="evenodd"><path d="M42.871 47.594H5.13a4.925 4.925 0 01-4.925-4.926V4.926A4.925 4.925 0 015.13 0H42.87a4.925 4.925 0 014.926 4.926v37.742a4.925 4.925 0 01-4.925 4.926" fill="#523178" fill-rule="nonzero"/><path d="M39.55 18.592c-.459 0-.853.272-1.027.66H27.377a1.393 1.393 0 00-.127-1.69l-2.759-2.954c1.022.53 3.553 2.269 5.29 3.555a1.751 1.751 0 002.424-.33 1.676 1.676 0 00-.337-2.378c-1.08-.801-4.859-3.149-7.361-4.688l-6.538 2.694a.61.61 0 01-.796-.318.59.59 0 01.324-.781l5.75-2.37-1.05-.64c-.648-.483-1.535-.367-1.873-.243l-7.173 2.656c-.586.185-1.043.603-1.225 1.232L9.067 22.38 4 26.68v10.891L29.555 23.78a1.688 1.688 0 00.937-2.22c-.365-.863-1.375-1.276-2.26-.919l-.383.156c-3.454 1.403-5.006 2.637-6.68 1.85-1.867-.88-2.514-2.137-2.163-4.115.243-1.35.976-2.488 2.068-3.203.074-.049.154-.08.232-.122l3.61 4.046H20.55a.445.445 0 00-.45.44c0 .244.202-.56.45-.56h17.974c.174.389.568.661 1.028.661v-1.201z" fill="#FFF" fill-rule="nonzero"/><path fill="#FFF" d="M20 19h19v1H20z"/><rect fill="#FFF" transform="matrix(-1 0 0 1 79 0)" x="36" y="18.5" width="7" height="2" rx="1"/><path d="M23.248 9.992l1.363.838-6.968 3-1.508-.573.747-1.129 6.366-2.136z" fill="#FFF"/></g></svg>
